Dominus_Dark_Funeral/22/apps/menu-editor.svg

<svg xmlns="http://www.w3.org/2000/svg" width="24" height="24" viewBox="0 0 6.35 6.35"><defs><linearGradient id="a"><stop offset="0" stop-color="#000007"/><stop offset="1" stop-color="#000007" stop-opacity="0"/></linearGradient></defs><path d="M54.45 50.86a1.26 1.26 0 1 0 0 2.53h2.92v4.55h2.62v-4.55h2.68a1.26 1.26 0 1 0 0-2.53zm2.92 7.08H53.6c-.5 0-.98.4-1.08.9l-1.57 8.48c-.09.5.25.9.75.9h4.59v.03h4.54v-.03h4.6c.5 0 .83-.4.74-.9l-1.57-8.49c-.1-.5-.57-.9-1.08-.9h-3.49v3.72h2.54l-3.98 3.27-3.82-3.27h2.6z" fill="#1a1a1a"/><path d="M.5.1a.4.4 0 0 0-.4.4v5.35c0 .22.18.4.4.4h5.35a.4.4 0 0 0 .4-.4V.5a.4.4 0 0 0-.4-.4zm.88.93a.53.51 0 0 1 .52.5.53.51 0 0 1-.52.52.53.51 0 0 1-.53-.51.53.51 0 0 1 .53-.51zm1.33.17h2.46c.18 0 .33.14.33.33 0 .2-.15.34-.33.34H2.7a.33.33 0 0 1-.34-.33v-.01c0-.19.15-.33.34-.33zM1.38 2.6a.53.51 0 0 1 .52.52.53.51 0 0 1-.52.51.53.51 0 0 1-.53-.51.53.51 0 0 1 .53-.51zm1.33.18h2.46c.18 0 .33.15.33.33v.01c0 .18-.15.33-.33.33H2.7a.33.33 0 1 1 0-.67zM1.38 4.19a.53.51 0 0 1 .52.51.53.51 0 0 1-.52.52.53.51 0 0 1-.53-.52.53.51 0 0 1 .53-.5zm1.33.17h2.46c.18 0 .33.15.33.34 0 .19-.15.34-.33.34H2.7a.33.33 0 1 1 0-.67z" fill="#e6e6e6"/></svg>

<?xml version="1.0" encoding="UTF-8" standalone="no"?>
<svg
   xmlns:dc="http://purl.org/dc/elements/1.1/"
   xmlns:cc="http://creativecommons.org/ns#"
   xmlns:rdf="http://www.w3.org/1999/02/22-rdf-syntax-ns#"
   xmlns:svg="http://www.w3.org/2000/svg"
   xmlns="http://www.w3.org/2000/svg"
   xmlns:sodipodi="http://sodipodi.sourceforge.net/DTD/sodipodi-0.dtd"
   xmlns:inkscape="http://www.inkscape.org/namespaces/inkscape"
   width="24"
   height="24"
   viewBox="0 0 6.35 6.35"
   version="1.1"
   id="svg13"
   sodipodi:docname="menu-editor.svg"
   inkscape:version="0.92.4 (5da689c313, 2019-01-14)">
  <metadata
     id="metadata17">
    <rdf:RDF>
      <cc:Work
         rdf:about="">
        <dc:format>image/svg+xml</dc:format>
        <dc:type
           rdf:resource="http://purl.org/dc/dcmitype/StillImage" />
        <dc:title></dc:title>
      </cc:Work>
    </rdf:RDF>
  </metadata>
  <sodipodi:namedview
     pagecolor="#ffffff"
     bordercolor="#666666"
     borderopacity="1"
     objecttolerance="10"
     gridtolerance="10"
     guidetolerance="10"
     inkscape:pageopacity="0"
     inkscape:pageshadow="2"
     inkscape:window-width="1138"
     inkscape:window-height="480"
     id="namedview15"
     showgrid="false"
     inkscape:zoom="9.8333333"
     inkscape:cx="1.0677966"
     inkscape:cy="12"
     inkscape:window-x="0"
     inkscape:window-y="25"
     inkscape:window-maximized="0"
     inkscape:current-layer="svg13" />
  <defs
     id="defs7">
    <linearGradient
       id="a">
      <stop
         offset="0"
         stop-color="#000007"
         id="stop2" />
      <stop
         offset="1"
         stop-color="#000007"
         stop-opacity="0"
         id="stop4" />
    </linearGradient>
  </defs>
  <path
     d="m 54.45,50.86 a 1.265,1.265 0 1 0 0,2.53 h 2.92 v 4.55 h 2.62 v -4.55 h 2.68 a 1.265,1.265 0 1 0 0,-2.53 z m 2.92,7.08 H 53.6 c -0.5,0 -0.98,0.4 -1.08,0.9 l -1.57,8.48 c -0.09,0.5 0.25,0.9 0.75,0.9 h 4.59 v 0.03 h 4.54 v -0.03 h 4.6 c 0.5,0 0.83,-0.4 0.74,-0.9 L 64.6,58.83 c -0.1,-0.5 -0.57,-0.9 -1.08,-0.9 h -3.49 v 3.72 h 2.54 l -3.98,3.27 -3.82,-3.27 h 2.6 z"
     id="path9"
     inkscape:connector-curvature="0"
     style="fill:#1a1a1a" />
  <path
     d="M 0.5,0.1 A 0.4,0.4 0 0 0 0.1,0.5 v 5.35 c 0,0.22 0.18,0.4 0.4,0.4 h 5.35 a 0.4,0.4 0 0 0 0.4,-0.4 V 0.5 A 0.4,0.4 0 0 0 5.85,0.1 Z M 1.38,1.03 A 0.53,0.51 0 0 1 1.9,1.53 0.53,0.51 0 0 1 1.38,2.05 0.53,0.51 0 0 1 0.85,1.54 0.53,0.51 0 0 1 1.38,1.03 Z M 2.71,1.2 h 2.46 c 0.18,0 0.33,0.14 0.33,0.33 0,0.2 -0.15,0.34 -0.33,0.34 H 2.7 A 0.33,0.33 0 0 1 2.36,1.54 V 1.53 C 2.36,1.34 2.51,1.2 2.7,1.2 Z M 1.38,2.6 A 0.53,0.51 0 0 1 1.9,3.12 0.53,0.51 0 0 1 1.38,3.63 0.53,0.51 0 0 1 0.85,3.12 0.53,0.51 0 0 1 1.38,2.61 Z m 1.33,0.18 h 2.46 c 0.18,0 0.33,0.15 0.33,0.33 V 3.12 C 5.5,3.3 5.35,3.45 5.17,3.45 H 2.7 a 0.335,0.335 0 1 1 0,-0.67 z M 1.38,4.19 A 0.53,0.51 0 0 1 1.9,4.7 0.53,0.51 0 0 1 1.38,5.22 0.53,0.51 0 0 1 0.85,4.7 0.53,0.51 0 0 1 1.38,4.2 Z M 2.71,4.36 H 5.17 C 5.35,4.36 5.5,4.51 5.5,4.7 5.5,4.89 5.35,5.04 5.17,5.04 H 2.7 a 0.335,0.335 0 1 1 0,-0.67 z"
     id="path11"
     inkscape:connector-curvature="0"
     style="fill:#e6e6e6" />
</svg>
